public/images/sprite.svg

<svg xmlns="http://www.w3.org/2000/svg">
	<defs>
		<symbol viewBox="0 0 18 32" id="icon-lightning">
			<path fill-rule="evenodd" clip-rule="evenodd"
				d="M12.443.336a2 2 0 01.554 2.773L5.737 14H16a2 2 0 011.664 3.11l-9.333 14a2 2 0 01-3.328-2.22L12.263 18H2a2 2 0 01-1.664-3.11l9.333-14a2 2 0 012.774-.554z" />
		</symbol>
		<symbol viewBox="0 0 26 26" id="icon-question-answer">
			<path fill-rule="evenodd" clip-rule="evenodd"
				d="M17.6433 0.514526H1.29826C0.606744 0.514526 0.0409546 1.08032 0.0409546 1.77184V19.3742L5.07019 14.3449H17.6433C18.3348 14.3449 18.9006 13.7791 18.9006 13.0876V1.77184C18.9006 1.08032 18.3348 0.514526 17.6433 0.514526ZM16.386 3.02908V11.8302H4.02665L3.28484 12.5721L2.5556 13.3013V3.02908H16.386ZM21.4152 5.54381H23.9298C24.6213 5.54381 25.1871 6.10959 25.1871 6.80112V25.6608L20.1579 20.6315H6.32748C5.63596 20.6315 5.07017 20.0657 5.07017 19.3742V16.8596H21.4152V5.54381Z" />
		</symbol>
		<symbol viewBox="0 0 28 22" id="icon-chrome-reader-mode">
			<path fill-rule="evenodd" clip-rule="evenodd"
				d="M2.70175 0.400635H25.3333C26.7164 0.400635 27.848 1.53221 27.848 2.91526V19.2603C27.848 20.6433 26.7164 21.7749 25.3333 21.7749H2.70175C1.31871 21.7749 0.187134 20.6433 0.187134 19.2603V2.91526C0.187134 1.53221 1.31871 0.400635 2.70175 0.400635ZM2.70172 2.91528V19.2603H12.7602V2.91528H2.70172ZM25.3333 19.2603H15.2749V2.91528H25.3333V19.2603ZM24.0761 7.31582H16.5322V9.20178H24.0761V7.31582ZM16.5322 10.4591H24.0761V12.3451H16.5322V10.4591ZM24.0761 13.6024H16.5322V15.4883H24.0761V13.6024Z" />
		</symbol>
		<symbol viewBox="0 0 21 21" id="icon-person">
			<path fill-rule="evenodd" clip-rule="evenodd"
				d="M10.3685 0.0292358C7.58987 0.0292358 5.33928 2.27982 5.33928 5.05848C5.33928 7.83713 7.58987 10.0877 10.3685 10.0877C13.1472 10.0877 15.3978 7.83713 15.3978 5.05848C15.3978 2.27982 13.1472 0.0292358 10.3685 0.0292358ZM12.8831 5.0585C12.8831 3.67546 11.7515 2.54388 10.3685 2.54388C8.98544 2.54388 7.85386 3.67546 7.85386 5.0585C7.85386 6.44154 8.98544 7.57312 10.3685 7.57312C11.7515 7.57312 12.8831 6.44154 12.8831 5.0585ZM17.9123 17.6316C17.6608 16.7389 13.7632 15.117 10.3684 15.117C6.98627 15.117 3.11375 16.7263 2.82457 17.6316H17.9123ZM0.309998 17.6316C0.309998 14.2871 7.01146 12.6023 10.3685 12.6023C13.7255 12.6023 20.427 14.2871 20.427 17.6316V20.1462H0.309998V17.6316Z" />
		</symbol>
		<symbol viewBox="0 0 21 21" id="icon-arrow-left">
			<path
				d="M20.9883 8.83041H5.68683L12.7152 1.80204L10.9298 0.0292358L0.871338 10.0877L10.9298 20.1462L12.7026 18.3734L5.68683 11.345H20.9883V8.83041Z" />
		</symbol>
		<symbol viewBox="0 0 21 21" id="icon-close">
			<path
				d="M21 2.115L18.885 0L10.5 8.385L2.115 0L0 2.115L8.385 10.5L0 18.885L2.115 21L10.5 12.615L18.885 21L21 18.885L12.615 10.5L21 2.115Z" />
		</symbol>
		<symbol viewBox="0 0 86 86" id="icon-spinner">
			<path fill-rule="evenodd" clip-rule="evenodd"
				d="M17.8009 60.5045L67.6057 24.9025L67.6796 25.0058C67.6551 24.9713 67.6306 24.9369 67.606 24.9025C57.7747 11.1492 38.6557 7.96983 24.9024 17.8011C11.1492 27.6323 7.96978 46.7513 17.8009 60.5045Z"
				fill="currentFill" />
			<path fill-rule="evenodd" clip-rule="evenodd"
				d="M67.6058 24.9025L17.8009 60.5047L17.7771 60.4715C17.785 60.4826 17.7929 60.4936 17.8008 60.5047C27.6321 74.2579 46.7511 77.4373 60.5044 67.6061C74.2577 57.7748 77.4371 38.6557 67.6058 24.9025Z"
				fill="currentColor" />
			<path
				d="M26.3985 59.0807C26.3985 61.4391 24.4866 63.351 22.1282 63.351C19.7697 63.351 17.8578 61.4391 17.8578 59.0807C17.8578 56.7222 19.7697 54.8103 22.1282 54.8103C24.4866 54.8103 26.3985 56.7222 26.3985 59.0807Z"
				fill="currentFill" />
			<path
				d="M68.3256 27.2472C68.3256 29.6056 66.4137 31.5175 64.0553 31.5175C61.6968 31.5175 59.7849 29.6056 59.7849 27.2472C59.7849 24.8887 61.6968 22.9768 64.0553 22.9768C66.4137 22.9768 68.3256 24.8887 68.3256 27.2472Z"
				fill="currentFill" />
			<path fill-rule="evenodd" clip-rule="evenodd"
				d="M24.1859 55.9403C31.4963 66.1671 45.7131 68.5313 55.9399 61.2208C66.1666 53.9104 68.5308 39.6937 61.2204 29.4669C53.9099 19.2401 39.6932 16.8759 29.4664 24.1864C19.2396 31.4968 16.8755 45.7135 24.1859 55.9403Z"
				fill="white" />
		</symbol>
		<symbol viewBox="0 0 32 31" id="icon-search">
			<path fill-rule="evenodd" clip-rule="evenodd"
				d="M21.1856 18.9783H22.5486L31.1579 27.6047L28.5872 30.1754L19.9607 21.5662V20.2032L19.4949 19.7201C17.528 21.4109 14.9746 22.4289 12.1968 22.4289C6.00304 22.4289 0.982422 17.4082 0.982422 11.2144C0.982422 5.02061 6.00304 0 12.1968 0C18.3907 0 23.4113 5.02061 23.4113 11.2144C23.4113 13.9922 22.3934 16.5456 20.7026 18.5124L21.1856 18.9783ZM4.433 11.2145C4.433 15.5104 7.90084 18.9783 12.1968 18.9783C16.4928 18.9783 19.9607 15.5104 19.9607 11.2145C19.9607 6.91846 16.4928 3.45062 12.1968 3.45062C7.90084 3.45062 4.433 6.91846 4.433 11.2145Z" />
		</symbol>
	</defs>
</svg>

<svg xmlns="http://www.w3.org/2000/svg"><defs><symbol viewBox="0 0 18 32" id="icon-lightning"><path fill-rule="evenodd" clip-rule="evenodd" d="M12.443.336a2 2 0 01.554 2.773L5.737 14H16a2 2 0 011.664 3.11l-9.333 14a2 2 0 01-3.328-2.22L12.263 18H2a2 2 0 01-1.664-3.11l9.333-14a2 2 0 012.774-.554z"/></symbol><symbol viewBox="0 0 26 26" id="icon-question-answer"><path fill-rule="evenodd" clip-rule="evenodd" d="M17.643.515H1.298C.607.515.041 1.08.041 1.772v17.602l5.03-5.03h12.572c.692 0 1.258-.565 1.258-1.256V1.772c0-.692-.566-1.257-1.258-1.257zm-1.257 2.514v8.801H4.026l-.741.742-.73.73V3.028h13.831zm5.03 2.515h2.514c.691 0 1.257.566 1.257 1.257v18.86l-5.03-5.03H6.328a1.261 1.261 0 01-1.257-1.257V16.86h16.345V5.544z"/></symbol><symbol viewBox="0 0 28 22" id="icon-chrome-reader-mode"><path fill-rule="evenodd" clip-rule="evenodd" d="M2.702.4h22.631a2.522 2.522 0 012.515 2.515V19.26a2.522 2.522 0 01-2.515 2.515H2.702A2.522 2.522 0 01.187 19.26V2.915A2.522 2.522 0 012.702.401zm0 2.515V19.26H12.76V2.915H2.702zM25.333 19.26H15.275V2.915h10.058V19.26zM24.076 7.316h-7.544v1.886h7.544V7.316zm-7.544 3.143h7.544v1.886h-7.544V10.46zm7.544 3.143h-7.544v1.886h7.544v-1.886z"/></symbol><symbol viewBox="0 0 21 21" id="icon-person"><path fill-rule="evenodd" clip-rule="evenodd" d="M10.368.03A5.028 5.028 0 005.34 5.057c0 2.78 2.25 5.03 5.03 5.03 2.778 0 5.029-2.25 5.029-5.03 0-2.778-2.25-5.029-5.03-5.029zm2.515 5.029a2.522 2.522 0 00-2.514-2.515 2.522 2.522 0 00-2.515 2.515 2.522 2.522 0 002.514 2.514 2.522 2.522 0 002.515-2.514zm5.03 12.573c-.252-.893-4.15-2.515-7.545-2.515-3.382 0-7.254 1.61-7.543 2.515h15.087zm-17.603 0c0-3.345 6.701-5.03 10.058-5.03s10.059 1.685 10.059 5.03v2.514H.31v-2.514z"/></symbol><symbol viewBox="0 0 21 21" id="icon-arrow-left"><path d="M20.988 8.83H5.687l7.028-7.028L10.93.029.87 10.088 10.93 20.146l1.773-1.773-7.016-7.028h15.301V8.83z"/></symbol><symbol viewBox="0 0 21 21" id="icon-close"><path d="M21 2.115L18.885 0 10.5 8.385 2.115 0 0 2.115 8.385 10.5 0 18.885 2.115 21l8.385-8.385L18.885 21 21 18.885 12.615 10.5 21 2.115z"/></symbol><symbol viewBox="0 0 86 86" id="icon-spinner"><path fill-rule="evenodd" clip-rule="evenodd" d="M17.8 60.505l49.806-35.603.074.104a38.45 38.45 0 00-.074-.104c-9.831-13.753-28.95-16.932-42.704-7.1-13.753 9.83-16.932 28.95-7.101 42.703z" fill="currentFill"/><path fill-rule="evenodd" clip-rule="evenodd" d="M67.606 24.902L17.8 60.505l-.024-.034.024.034c9.831 13.753 28.95 16.932 42.703 7.101 13.754-9.831 16.933-28.95 7.102-42.703z" fill="currentColor"/><path d="M26.398 59.08a4.27 4.27 0 11-8.54 0 4.27 4.27 0 018.54 0zM68.326 27.247a4.27 4.27 0 11-8.541 0 4.27 4.27 0 018.54 0z" fill="currentFill"/><path fill-rule="evenodd" clip-rule="evenodd" d="M24.186 55.94c7.31 10.227 21.527 12.591 31.754 5.28 10.227-7.31 12.59-21.526 5.28-31.753s-21.527-12.591-31.754-5.28c-10.226 7.31-12.59 21.527-5.28 31.753z" fill="#fff"/></symbol><symbol viewBox="0 0 32 31" id="icon-search"><path fill-rule="evenodd" clip-rule="evenodd" d="M21.186 18.978h1.363l8.609 8.627-2.57 2.57-8.627-8.609v-1.363l-.466-.483a11.165 11.165 0 01-7.298 2.709c-6.194 0-11.215-5.02-11.215-11.215C.982 5.021 6.003 0 12.197 0S23.41 5.02 23.41 11.214c0 2.778-1.018 5.332-2.708 7.298l.483.466zM4.433 11.214a7.753 7.753 0 007.764 7.764 7.754 7.754 0 007.764-7.764 7.753 7.753 0 00-7.764-7.763 7.753 7.753 0 00-7.764 7.763z"/></symbol></defs></svg>
